packages/kaspersky-hexa-ui-icons/src/iconsSVGs/24/Cursor.svg

<svg width="24" height="24" viewBox="0 0 24 24" fill="none" xmlns="http://www.w3.org/2000/svg">
<path fill-rule="evenodd" clip-rule="evenodd" d="M5.32239 1.89712C4.03512 1.26911 2.59663 2.41942 2.92617 3.81329L6.98266 20.971C7.32662 22.4258 9.24717 22.7578 10.0596 21.5029L14.0754 15.2994L21.0102 12.7461C22.4131 12.2296 22.5116 10.283 21.168 9.62753L5.32239 1.89712ZM5.01945 3.97464L19.6539 11.1142L13.0716 13.5377C12.8685 13.6125 12.6952 13.7511 12.5776 13.9327L8.76589 19.8209L5.01945 3.97464Z" fill="black"/>
</svg>

<svg xmlns="http://www.w3.org/2000/svg" width="24" height="24" fill="none" viewBox="0 0 24 24"><path fill="#000" fill-rule="evenodd" d="M5.3225 1.8971c-1.2873-.628-2.7257.5223-2.3962 1.9162L6.9828 20.971c.344 1.4548 2.2645 1.7868 3.0769.5319l4.0158-6.2035 6.9348-2.5533c1.4029-.5165 1.5014-2.4631.1578-3.1186zm-.303 2.0775 14.6346 7.1396-6.5824 2.4235a1 1 0 0 0-.4939.395L8.766 19.8209z"/></svg>
